X: 17
T:Midnight On The Water
M:3/4
L:1/8
Q:120
R:Waltz
K:D
DE|"D".F2.F2.F2|"Bm".F2.F2.F2|"D"A4- AB|AF (3E/2F/2E/2D DE|
F2 "G"d2 B-d|"D"A3 F DE|!
F2 AF "A"(3E/2F/2E/2D|1"D"D4 :|2"D"D4 Bc||
"G"d2d3 e|dc BA Bc|"D"d3 B AF|!
D4 [F2d2]|"Em"e4 ef|e3 d ed|
"F#m"f3 a fe|dc BA Bc|"G"d3 c de|!
dc BA Bc|"D"d3 B AF|"G"D4 DE|
"D"F2 "G"d2 B-d|"D"A3 F DE|F2 AF "A"ED|"D"D4||
